Numix/32/actions/view-right-close.svg

<?xml version="1.0" encoding="UTF-8" standalone="no"?>
<svg
   xmlns:dc="http://purl.org/dc/elements/1.1/"
   xmlns:cc="http://creativecommons.org/ns#"
   xmlns:rdf="http://www.w3.org/1999/02/22-rdf-syntax-ns#"
   xmlns:svg="http://www.w3.org/2000/svg"
   xmlns="http://www.w3.org/2000/svg"
   xmlns:sodipodi="http://sodipodi.sourceforge.net/DTD/sodipodi-0.dtd"
   xmlns:inkscape="http://www.inkscape.org/namespaces/inkscape"
   width="32"
   height="32"
   viewBox="0 0 32 32"
   id="svg2"
   version="1.1"
   inkscape:version="0.91 r13725"
   sodipodi:docname="view-right-close.svg">
  <metadata
     id="metadata22">
    <rdf:RDF>
      <cc:Work
         rdf:about="">
        <dc:format>image/svg+xml</dc:format>
        <dc:type
           rdf:resource="http://purl.org/dc/dcmitype/StillImage" />
        <dc:title></dc:title>
      </cc:Work>
    </rdf:RDF>
  </metadata>
  <defs
     id="defs20" />
  <sodipodi:namedview
     pagecolor="#ffffff"
     bordercolor="#666666"
     borderopacity="1"
     objecttolerance="10"
     gridtolerance="10"
     guidetolerance="10"
     inkscape:pageopacity="0"
     inkscape:pageshadow="2"
     inkscape:window-width="1366"
     inkscape:window-height="704"
     id="namedview18"
     showgrid="false"
     inkscape:zoom="11.55885"
     inkscape:cx="-4.1374002"
     inkscape:cy="5.6959215"
     inkscape:window-x="0"
     inkscape:window-y="27"
     inkscape:window-maximized="1"
     inkscape:current-layer="svg2" />
  <path
     style="fill:#fff"
     d="M 3.75 2.019531 C 1.695312 2.019531 0 3.714844 0 5.769531 L 0 30.015625 L 28 30.015625 L 28 5.769531 C 28 3.714844 26.304688 2.019531 24.25 2.019531 Z "
     id="path4" />
  <path
     style="fill:#888"
     d="M 3.75 2.019531 C 1.695312 2.019531 0 3.714844 0 5.769531 L 0 30.015625 L 28 30.015625 L 28 5.769531 C 28 3.714844 26.304688 2.019531 24.25 2.019531 Z M 3.75 4.019531 L 24.25 4.019531 C 25.230469 4.019531 26 4.789062 26 5.769531 L 26 28.015625 L 2 28.015625 L 2 5.769531 C 2 4.789062 2.769531 4.019531 3.75 4.019531 Z "
     id="path6" />
  <path
     style="fill:#000;fill-opacity:.102"
     d="M 2 12 L 10 12 L 10 28 L 2 28 Z "
     id="path8" />
  <g
     style="fill:#888;fill-opacity:.902"
     id="g10">
    <path
       d="M 2 10 L 2 12 L 10 12 L 10 28 L 12 28 L 12 12 L 26 12 L 26 10 L 2 10 z "
       id="path12" />
  </g>
  <path
     style="fill:#dc322f;fill-opacity:1"
     d="M 32,27.500001 27.500001,23 32,18.499999 27.500001,14 23,18.499999 18.499999,14 14,18.499999 18.499999,23 14,27.500001 18.499999,32 23,27.500001 27.500001,32 Z"
     id="path6-7"
     inkscape:connector-curvature="0" />
</svg>

<svg xmlns="http://www.w3.org/2000/svg" viewBox="0 0 32 32">
 <path d="m 3.75 2.02 c -2.055 0 -3.75 1.695 -3.75 3.75 l 0 24.25 l 28 0 l 0 -24.25 c 0 -2.055 -1.695 -3.75 -3.75 -3.75 Z" style="fill:#fff"/>
 <path d="m 3.75 2.02 c -2.055 0 -3.75 1.695 -3.75 3.75 l 0 24.25 l 28 0 l 0 -24.25 c 0 -2.055 -1.695 -3.75 -3.75 -3.75 m -20.5 2 l 20.5 0 c 0.98 0 1.75 0.77 1.75 1.75 l 0 22.246 l -24 0 l 0 -22.246 c 0 -0.98 0.77 -1.75 1.75 -1.75 Z" style="fill:#888"/>
 <path d="m 2 12 l 8 0 l 0 16 l -8 0 Z" style="fill:#000;fill-opacity:0.102"/>
 <g style="fill:#888;fill-opacity:0.902">
  <path d="m 2 10 l 0 2 l 8 0 l 0 16 l 2 0 l 0 -16 l 14 0 l 0 -2 l -24 0 z"/>
 </g>
 <path d="m 32 27.5 -4.5 -4.5 4.5 -4.5 -4.5 -4.5 -4.5 4.5 -4.5 -4.5 -4.5 4.5 4.5 4.5 -4.5 4.5 4.5 4.5 4.5 -4.5 4.5 4.5" style="fill:#dc322f;fill-opacity:1"/>
</svg>
